src/lib/packages/icons/src/assets/filled/dislike-tag.svg

<svg width="24" height="24" viewBox="0 0 24 24" fill="none" xmlns="http://www.w3.org/2000/svg">
<path d="M17.667 2H6.33398C4.11198 2 3.00098 3.11101 3.00098 5.33301V15.333C3.00098 17.555 4.11198 18.666 6.33398 18.666H7.83398C8.35898 18.666 8.85299 18.913 9.16699 19.333L10.667 21.333C11.334 22.222 12.667 22.222 13.334 21.333L14.834 19.333C15.149 18.913 15.643 18.666 16.167 18.666H17.667C19.889 18.666 21 17.555 21 15.333V5.33301C21 3.11101 19.889 2 17.667 2ZM14 12.312C14 12.344 13.995 12.375 13.985 12.406L12.9 15.71C12.77 16.05 12.45 16.25 12.11 16.25C11.95 16.25 11.79 16.21 11.65 16.11C11.21 15.82 10.95 15.32 10.95 14.79V13.08H8.88C7.3 13.08 7.04 12.02 7.38 11L8.43994 7.83002C8.64994 7.19002 8.87994 6.75 9.93994 6.75H13.7C13.866 6.75 14 6.88399 14 7.04999V12.312ZM16.75 11.24C16.75 11.675 16.395 12.03 15.96 12.03H15.3C15.134 12.03 15 11.896 15 11.73V7.04999C15 6.88399 15.134 6.75 15.3 6.75H15.96C16.396 6.75 16.75 7.10398 16.75 7.53998V11.24Z" fill="currentColor"/>
</svg>

<svg xmlns="http://www.w3.org/2000/svg" width="24" height="24" fill="none"><path fill="currentColor" d="M17.667 2H6.334C4.112 2 3.001 3.111 3.001 5.333v10c0 2.222 1.111 3.333 3.333 3.333h1.5c.525 0 1.019.247 1.333.667l1.5 2c.667.889 2 .889 2.667 0l1.5-2c.315-.42.809-.667 1.333-.667h1.5c2.222 0 3.333-1.111 3.333-3.333v-10C21 3.111 19.889 2 17.667 2ZM14 12.312a.303.303 0 0 1-.015.094L12.9 15.71a.84.84 0 0 1-.79.54c-.16 0-.32-.04-.46-.14-.44-.29-.7-.79-.7-1.32v-1.71H8.88c-1.58 0-1.84-1.06-1.5-2.08l1.06-3.17c.21-.64.44-1.08 1.5-1.08h3.76a.3.3 0 0 1 .3.3v5.262Zm2.75-1.072c0 .435-.355.79-.79.79h-.66a.3.3 0 0 1-.3-.3V7.05a.3.3 0 0 1 .3-.3h.66a.79.79 0 0 1 .79.79v3.7Z"/></svg>
